X:354
T: ES LAGEN ZWEI VERBORGEN
N: E0201A
O: Europa, Mitteleuropa, Deutschland, Ober - Lahnkreis; Limburg
R: erzaehlendes Volks - Lied, Tod, Toten - Sage, Grabesstimme
M: 4/4
L: 1/8
K: C
G2 | E2E2EGA2 | G2F2D2
GA | G2E2GAG2 | E4z2
G2 | E2E2EGA2 | G2F2D2
G2 | G2E2DED2 | C4z2

